X: 1558
T: Pek Harâretli Olur
C: Ahmet Avni Konuk
O: Turkey
F: http://compmusic.upf.edu/node/140
N: hicazbuselik--kupe--agiraksak--pek--ahmet_avni_konuk
N: makam= hicazbuselik
N: form= kupe
N: usul= agiraksak = 9/4
M: 9/4
L: 1/16
K: C _7/8B ^c  
Q: 1/4=60
%%MIDI tuningsystem comma53
^3/4c4 d4 z2A4d2 d8 c2d2 e2f2 e2d2  | \
w:  Ah  *  pek  ha râ ret  | 
^3/4c4 B2A2 e4 d2c2 c2B2 B2A2 A2B2 c2d2 c2B2  | 
w:  li  *  *  *  o *  lur  *  *  *  câ  | 
A6e2 e2d2 ^3/4c2d2 e8 e2f2 e2f2 e2d2  | \
w:  *  *  nâ  *  Hi *  caz da   | 
e4 e2d2 g4 f2e2 e2d2 d2^3/4c2 d8 z4  | 
w:  Bû *  *  *  se *  lik    | 
e8 e2d2 ^3/4c2d2 e8 g4 ^3/4f4 g4  | \
w:  Ah  tîr_ *  *  i  te' si  | 
^3/4f4 e2^2/4f2 e4 d2=f2 e2d2 ^3/4c2B2 e2d2 c2B2 c3B  | 
w:  ri  *  *  e *  *  der  *  *  *  ehl_  | 
A4 =c4 z2c4c2 c2=B2 c2d2 e2d2 c2B2 A4  | \
w:  *  *  i  di lin  *  *  *  kal  | 
=B2=c2 B2A2 d4 c2B2 B2A2 A2^G2 A8 z4  | 
w:  bin *  *  *  *  de *  lik    | 
|


